packages/tokens/icons/knowledgeBase/size24Px.svg

<svg viewBox="0 0 24 24" fill="none" xmlns="http://www.w3.org/2000/svg" width="1em" height="1em"><path d="M3.5 18V18.5C3.5 19.0523 3.94772 19.5 4.5 19.5H19.5C20.0523 19.5 20.5 19.0523 20.5 18.5V18" stroke="currentColor" stroke-linecap="round"/><path d="M2.5 6C2.5 5.72386 2.72386 5.5 3 5.5L9.5 5.5C10.8807 5.5 12 6.61929 12 8V17.5H3C2.72386 17.5 2.5 17.2761 2.5 17V6Z" stroke="currentColor"/><path d="M21.5 13.5V6.00001C21.5 5.72386 21.2761 5.50001 21 5.50001L14.5 5.5C13.1193 5.5 12 6.61929 12 8V17.5H18.5" stroke="currentColor" stroke-linecap="round"/><path d="M5.5 8.5H9" stroke="currentColor" stroke-linecap="round"/><path d="M15 8.5H18.5" stroke="currentColor" stroke-linecap="round"/><path d="M5.5 11.5H9" stroke="currentColor" stroke-linecap="round"/><path d="M5.5 14.5H7.5" stroke="currentColor" stroke-linecap="round"/><path d="M19.5 13C19.5 14.3807 18.3807 15.5 17 15.5C15.6193 15.5 14.5 14.3807 14.5 13C14.5 11.6193 15.6193 10.5 17 10.5C18.3807 10.5 19.5 11.6193 19.5 13Z" stroke="currentColor"/><path d="M21.2677 16.7676L19.1464 14.6463" stroke="currentColor" stroke-linecap="round" stroke-linejoin="round"/></svg>

<svg xmlns="http://www.w3.org/2000/svg" fill="none" viewBox="0 0 24 24" width="1em" height="1em"><path stroke="currentColor" stroke-linecap="round" d="M3.5 18v.5a1 1 0 0 0 1 1h15a1 1 0 0 0 1-1V18"/><path stroke="currentColor" d="M2.5 6a.5.5 0 0 1 .5-.5h6.5A2.5 2.5 0 0 1 12 8v9.5H3a.5.5 0 0 1-.5-.5V6Z"/><path stroke="currentColor" stroke-linecap="round" d="M21.5 13.5V6a.5.5 0 0 0-.5-.5h-6.5A2.5 2.5 0 0 0 12 8v9.5h6.5m-13-9H9m6 0h3.5m-13 3H9m-3.5 3h2"/><path stroke="currentColor" d="M19.5 13a2.5 2.5 0 1 1-5 0 2.5 2.5 0 0 1 5 0Z"/><path stroke="currentColor" stroke-linecap="round" stroke-linejoin="round" d="m21.268 16.768-2.122-2.122"/></svg>
